Origami/22x22/apps/livewallpaper-config.svg

<svg width="22" height="22" version="1" xmlns="http://www.w3.org/2000/svg">
 <g transform="translate(-1,-1)">
  <rect transform="matrix(0,-1,-1,0,0,0)" x="-21.5" y="-18" width="16" height="12" rx="1" ry="1" style="opacity:.2"/>
  <rect transform="matrix(0,-1,-1,0,0,0)" x="-21" y="-18" width="16" height="12" rx="1" ry="1" style="fill:#8e8e8e"/>
  <rect transform="matrix(0,-1,-1,0,0,0)" x="-19.5" y="-22" width="16" height="20" rx="1" ry="1" style="opacity:.2"/>
  <rect transform="matrix(0,-1,-1,0,0,0)" x="-19" y="-22" width="16" height="20" rx="1" ry="1" style="fill:#4f4f4f"/>
  <path d="m3 3c-0.554 0-1 0.446-1 1v0.5c0-0.554 0.446-1 1-1h18c0.554 0 1 0.446 1 1v-0.5c0-0.554-0.446-1-1-1z" style="fill:#ffffff;opacity:.1"/>
  <rect transform="matrix(0,-1,-1,0,0,0)" x="-18" y="-21" width="14" height="18" rx="0" ry="0" style="fill:#1d83af"/>
  <path d="m16.5 5.5a2.5 2.5 0 0 0 -2.5 2.5 2.5 2.5 0 0 0 2.5 2.5 2.5 2.5 0 0 0 2.5 -2.5 2.5 2.5 0 0 0 -2.5 -2.5zm-5.5 2a1 1 0 0 0 -1 1 1 1 0 0 0 1 1 1 1 0 0 0 1 -1 1 1 0 0 0 -1 -1zm-4 2a2 2 0 0 0 -2 2 2 2 0 0 0 2 2 2 2 0 0 0 2 -2 2 2 0 0 0 -2 -2zm11 3a1 1 0 0 0 -1 1 1 1 0 0 0 1 1 1 1 0 0 0 1 -1 1 1 0 0 0 -1 -1zm-4.5 1a1.5 1.5 0 0 0 -1.5 1.5 1.5 1.5 0 0 0 1.5 1.5 1.5 1.5 0 0 0 1.5 -1.5 1.5 1.5 0 0 0 -1.5 -1.5z" style="opacity:.2"/>
  <circle cx="16.5" cy="7.5" r="2.5" style="fill:#f0f9fd"/>
  <circle cx="7" cy="11" r="2" style="fill:#c4e7f5"/>
  <circle cx="13.5" cy="14.5" r="1.5" style="fill:#a6daf0"/>
  <circle cx="11" cy="8" r="1" style="fill:#c4e7f5"/>
  <circle cx="18" cy="13" r="1" style="fill:#d3edf8"/>
  <circle cx="18" cy="18" r="5" style="fill:#c149c0"/>
  <path d="m17.223 15-0.066 0.79a2.3572 2.3572 0 0 0 -0.689 0.399l-0.718-0.339-0.75 1.3 0.652 0.452a2.3572 2.3572 0 0 0 -0.036 0.398 2.3572 2.3572 0 0 0 0.034 0.399l-0.65 0.452 0.75 1.299 0.716-0.337a2.3572 2.3572 0 0 0 0.691 0.395l0.066 0.792h1.5l0.066-0.79a2.3572 2.3572 0 0 0 0.689 -0.398l0.718 0.338 0.75-1.299-0.652-0.453a2.3572 2.3572 0 0 0 0.036 -0.398 2.3572 2.3572 0 0 0 -0.034 -0.399l0.65-0.451-0.75-1.299-0.716 0.337a2.3572 2.3572 0 0 0 -0.691 -0.395l-0.066-0.792h-1.5zm0.75 2.143a0.85715 0.85715 0 0 1 0.857 0.857 0.85715 0.85715 0 0 1 -0.857 0.857 0.85715 0.85715 0 0 1 -0.857 -0.857 0.85715 0.85715 0 0 1 0.857 -0.857z" style="fill:#ffffff"/>
 </g>
</svg>

<svg xmlns="http://www.w3.org/2000/svg" width="22" height="22" version="1">
 <g transform="translate(-1,-1)">
  <rect style="opacity:0.2" width="16" height="12" x="-21.5" y="-18" rx="1" ry="1" transform="matrix(0,-1,-1,0,0,0)"/>
  <rect style="fill:#8e8e8e" width="16" height="12" x="-21" y="-18" rx="1" ry="1" transform="matrix(0,-1,-1,0,0,0)"/>
  <rect style="opacity:0.2" width="16" height="20" x="-19.5" y="-22" rx="1" ry="1" transform="matrix(0,-1,-1,0,0,0)"/>
  <rect style="fill:#4f4f4f" width="16" height="20" x="-19" y="-22" rx="1" ry="1" transform="matrix(0,-1,-1,0,0,0)"/>
  <path style="opacity:0.1;fill:#ffffff" d="M 3,3 C 2.446,3 2,3.446 2,4 V 4.5 C 2,3.946 2.446,3.5 3,3.5 H 21 C 21.554,3.5 22,3.946 22,4.5 V 4 C 22,3.446 21.554,3 21,3 Z"/>
  <rect style="fill:#1d83af" width="14" height="18" x="-18" y="-21" rx="0" ry="0" transform="matrix(0,-1,-1,0,0,0)"/>
  <path style="opacity:0.2" d="M 16.5,5.5 A 2.5,2.5 0 0 0 14,8 2.5,2.5 0 0 0 16.5,10.5 2.5,2.5 0 0 0 19,8 2.5,2.5 0 0 0 16.5,5.5 Z M 11,7.5 A 1,1 0 0 0 10,8.5 1,1 0 0 0 11,9.5 1,1 0 0 0 12,8.5 1,1 0 0 0 11,7.5 Z M 7,9.5 A 2,2 0 0 0 5,11.5 2,2 0 0 0 7,13.5 2,2 0 0 0 9,11.5 2,2 0 0 0 7,9.5 Z M 18,12.5 A 1,1 0 0 0 17,13.5 1,1 0 0 0 18,14.5 1,1 0 0 0 19,13.5 1,1 0 0 0 18,12.5 Z M 13.5,13.5 A 1.5,1.5 0 0 0 12,15 1.5,1.5 0 0 0 13.5,16.5 1.5,1.5 0 0 0 15,15 1.5,1.5 0 0 0 13.5,13.5 Z"/>
  <circle style="fill:#f0f9fd" cx="16.5" cy="7.5" r="2.5"/>
  <circle style="fill:#c4e7f5" cx="7" cy="11" r="2"/>
  <circle style="fill:#a6daf0" cx="13.5" cy="14.5" r="1.5"/>
  <circle style="fill:#c4e7f5" cx="11" cy="8" r="1"/>
  <circle style="fill:#d3edf8" cx="18" cy="13" r="1"/>
  <circle style="fill:#c149c0" cx="18" cy="18" r="5"/>
  <path style="fill:#ffffff" d="M 17.223,15 17.157,15.79 A 2.3572,2.3572 0 0 0 16.468,16.189 L 15.75,15.85 15,17.15 15.652,17.602 A 2.3572,2.3572 0 0 0 15.616,18 2.3572,2.3572 0 0 0 15.65,18.399 L 15,18.851 15.75,20.15 16.466,19.813 A 2.3572,2.3572 0 0 0 17.157,20.208 L 17.223,21 H 18.723 L 18.789,20.21 A 2.3572,2.3572 0 0 0 19.478,19.812 L 20.196,20.15 20.946,18.851 20.294,18.398 A 2.3572,2.3572 0 0 0 20.33,18 2.3572,2.3572 0 0 0 20.296,17.601 L 20.946,17.15 20.196,15.851 19.48,16.188 A 2.3572,2.3572 0 0 0 18.789,15.793 L 18.723,15.001 H 17.223 Z M 17.973,17.143 A 0.85715,0.85715 0 0 1 18.83,18 0.85715,0.85715 0 0 1 17.973,18.857 0.85715,0.85715 0 0 1 17.116,18 0.85715,0.85715 0 0 1 17.973,17.143 Z"/>
 </g>
</svg>
